picto/luggage-deposit.svg

<svg class="color-immutable" width="24" height="24" viewBox="0 0 24 24" fill="none" xmlns="http://www.w3.org/2000/svg"><path d="M0 22.5V1.5C0 0.675 0.675 0 1.5 0H22.5C23.325 0 24 0.675 24 1.5V22.5C24 23.325 23.325 24 22.5 24H1.5C0.675 24 0 23.325 0 22.5Z" fill="#2D327D"/><path d="M3 7.5H3.675V8.625H3V7.5Z" fill="white"/><path d="M3 19.125H3.675V20.25H3V19.125Z" fill="white"/><path d="M4.42499 6.75H5.47499V21H4.42499V6.75Z" fill="white"/><path d="M6.15002 19.163H17.85V20.25H6.15002V19.163Z" fill="white"/><path d="M16.726 10.838H13.8V10.275C13.8 9.75901 13.38 9.33701 12.863 9.33701H11.137C10.62 9.33701 10.201 9.75901 10.201 10.275V10.838H7.27502C6.65302 10.838 6.15002 11.342 6.15002 11.963V17.252C6.15002 17.872 6.65302 18.375 7.27502 18.375H16.726C17.347 18.375 17.85 17.872 17.85 17.252V11.963C17.85 11.342 17.347 10.838 16.726 10.838ZM13.125 10.838H10.875V10.014H13.125V10.838Z" fill="white"/><path d="M6.15002 7.5H17.85V8.587H6.15002V7.5Z" fill="white"/><path d="M18.525 6.75H19.575V21H18.525V6.75Z" fill="white"/><path d="M20.325 7.5H21V8.625H20.325V7.5Z" fill="white"/><path d="M20.325 19.125H21V20.25H20.325V19.125Z" fill="white"/></svg>

<svg class="color-immutable" width="24" height="24" viewBox="0 0 24 24" fill="none" xmlns="http://www.w3.org/2000/svg"><g clip-path="url(#a)"><path d="M0 22.5v-21C0 .675.675 0 1.5 0h21c.825 0 1.5.675 1.5 1.5v21c0 .825-.675 1.5-1.5 1.5h-21C.675 24 0 23.325 0 22.5Z" fill="#2D327D"/><path d="M3 7.5h.675v1.125H3V7.5ZM3 19.125h.675v1.125H3v-1.125ZM4.425 6.75h1.05V21h-1.05V6.75ZM6.15 19.163h11.7v1.087H6.15v-1.087ZM16.726 10.838H13.8v-.563a.94.94 0 0 0-.937-.938h-1.726a.938.938 0 0 0-.936.938v.563H7.275c-.622 0-1.125.504-1.125 1.125v5.289c0 .62.503 1.123 1.125 1.123h9.451c.621 0 1.124-.503 1.124-1.123v-5.289c0-.621-.503-1.125-1.124-1.125Zm-3.601 0h-2.25v-.824h2.25v.824ZM6.15 7.5h11.7v1.087H6.15V7.5ZM18.525 6.75h1.05V21h-1.05V6.75ZM20.325 7.5H21v1.125h-.675V7.5ZM20.325 19.125H21v1.125h-.675v-1.125Z" fill="#fff"/></g><defs><clipPath id="a"><path fill="#fff" d="M0 0h24v24H0z"/></clipPath></defs></svg>
